assets/images/angle-left.svg

<svg width="18" height="53" viewBox="0 0 18 53" fill="none" xmlns="http://www.w3.org/2000/svg">
<path d="M16.4087 51.9995C16.2575 51.9995 16.1062 51.9037 15.9903 51.7139L1.17256 27.1864C1.06264 27.0025 1 26.7541 1 26.4939C1 26.2337 1.06264 25.9853 1.17256 25.8014L15.9915 1.28561C16.222 0.904143 16.5967 0.904143 16.8271 1.28561C17.0576 1.66708 17.0576 2.28721 16.8271 2.66868L2.42658 26.4939L16.8271 50.3289C17.0576 50.7103 17.0576 51.3305 16.8271 51.7119C16.7113 51.9037 16.56 51.9995 16.4087 51.9995Z" fill="#C4C4C4" stroke="white" stroke-width="0.5"/>
</svg>

<svg width="18" height="53" fill="none" xmlns="http://www.w3.org/2000/svg"><path d="M16.409 52c-.151 0-.303-.096-.419-.286L1.173 27.186A1.377 1.377 0 0 1 1 26.494c0-.26.063-.509.173-.693L15.992 1.286c.23-.382.605-.382.835 0 .23.381.23 1.001 0 1.383l-14.4 23.825 14.4 23.835c.23.381.23 1.002 0 1.383-.116.192-.267.287-.418.287Z" fill="#C4C4C4" stroke="#fff" stroke-width=".5"/></svg>
